dist/img/background_svg/icon-beard.svg

<svg xmlns="http://www.w3.org/2000/svg" viewBox="0 0 22 21"><path d="M21.8 0h-.1c-1 3.3-1.3 7.3-4 8.8-.5-1.4-1.8-2.1-3.2-2.7-.9-.4-1.9-1.1-2.8-1.1-.2 0-.4 0-.6.1-.3-.1-.5-.1-.7-.1-.9 0-1.9.7-2.8 1.1-1.5.7-2.7 1.3-3.2 2.7-2.8-1.5-3-5.6-4-8.8H.3C.1.3.1.7 0 1c0 .8.2 9.2.8 12.2.5 2.7 2.6 4.6 4.6 5.9 1.4.9 3.6 2.1 5.6 2.1 1.9 0 4.2-1.2 5.6-2.1 2-1.3 4.1-3.2 4.6-5.9.6-3 .8-11.4.8-12.2 0-.3-.1-.7-.2-1zm-6 12c-.1.7-.7 1.5-1.4 1.5-1.3.1-1.9-1.9-3.4-1.9-1.4 0-2.1 1.9-3.4 1.9-.7 0-1.3-.8-1.4-1.5-.1-.8.3-2 .7-2.4.5-.5 1.2-.4 2-.5.9-.1 1.7-.4 2.1-.8.5.5 1.2.7 2.1.8.8.1 1.5.1 2 .5.5.5.9 1.6.7 2.4z" fill="#826550"/></svg>

<?xml version="1.0" encoding="utf-8"?>
<!-- Generator: Adobe Illustrator 24.1.2, SVG Export Plug-In . SVG Version: 6.00 Build 0)  -->
<svg version="1.1" id="Layer_1" xmlns="http://www.w3.org/2000/svg" xmlns:xlink="http://www.w3.org/1999/xlink" x="0px" y="0px"
	 viewBox="0 0 22 21" style="enable-background:new 0 0 22.1 21.2;" xml:space="preserve">
<style type="text/css">
	.st0{fill:#826550;}
</style>
<path class="st0" d="M21.8,0c0,0-0.1,0-0.1,0c-1,3.3-1.3,7.3-4,8.8c-0.5-1.4-1.8-2.1-3.2-2.7C13.6,5.7,12.6,5,11.7,5
	c-0.2,0-0.4,0-0.6,0.1C10.8,5,10.6,5,10.4,5C9.5,5,8.5,5.7,7.6,6.1C6.1,6.8,4.9,7.4,4.4,8.8c-2.8-1.5-3-5.6-4-8.8c0,0-0.1,0-0.1,0
	C0.1,0.3,0.1,0.7,0,1c0,0.8,0.2,9.2,0.8,12.2c0.5,2.7,2.6,4.6,4.6,5.9c1.4,0.9,3.6,2.1,5.6,2.1c1.9,0,4.2-1.2,5.6-2.1
	c2-1.3,4.1-3.2,4.6-5.9c0.6-3,0.8-11.4,0.8-12.2C22,0.7,21.9,0.3,21.8,0z M15.8,12c-0.1,0.7-0.7,1.5-1.4,1.5
	c-1.3,0.1-1.9-1.9-3.4-1.9c-1.4,0-2.1,1.9-3.4,1.9c-0.7,0-1.3-0.8-1.4-1.5c-0.1-0.8,0.3-2,0.7-2.4c0.5-0.5,1.2-0.4,2-0.5
	C9.8,9,10.6,8.7,11,8.3c0,0,0,0,0,0c0.5,0.5,1.2,0.7,2.1,0.8c0.8,0.1,1.5,0.1,2,0.5C15.6,10.1,16,11.2,15.8,12z"/>
</svg>
